src/assets/desktop/p33.svg

<svg width="200" height="42" viewBox="0 0 200 42" fill="none" xmlns="http://www.w3.org/2000/svg">
<path d="M28.3361 7.82731e-05C28.5452 -0.00287604 28.7468 0.0779057 28.896 0.224434L30.9586 2.24967C31.4519 2.73412 31.4598 3.52657 30.9762 4.02076L24.8127 10.3195C24.6948 10.4399 24.4917 10.4247 24.3231 10.4272L16.335 10.5398C16.2326 10.5413 16.1349 10.5833 16.0635 10.6568L10.4641 16.4162C10.3932 16.4892 10.354 16.5873 10.3549 16.689L10.4282 24.7214L3.80674 31.1906C3.3188 31.6674 2.53923 31.6663 2.05249 31.1884L0.383185 29.5492C0.234931 29.4036 0.150579 29.2051 0.148683 28.9974L3.26417e-05 12.7029C-0.00185051 12.4964 0.0778143 12.2976 0.221712 12.1496L11.5806 0.465916C11.7255 0.316941 11.9235 0.231601 12.1314 0.228667L28.3361 7.82731e-05Z" fill="url(#paint0_linear_1943_1477)"/>
<path d="M12.5059 41.1284C12.2968 41.1313 12.0952 41.0505 11.946 40.904L9.9026 38.8976C9.41026 38.4142 9.40122 37.6237 9.88237 37.1291L16.0303 30.8095C16.1478 30.6889 16.3509 30.7037 16.5193 30.7014L24.5074 30.5887C24.6098 30.5872 24.7075 30.5451 24.7788 30.4717L30.3782 24.7122C30.4491 24.6392 30.4884 24.5413 30.4875 24.4394L30.419 16.9412C30.416 16.6 30.552 16.2722 30.796 16.0337L37.031 9.93478C37.5189 9.45762 38.2988 9.45833 38.7858 9.9365L40.4588 11.5792C40.6071 11.7248 40.6914 11.9233 40.6933 12.1311L40.842 28.4256C40.8438 28.632 40.7641 28.8308 40.6203 28.9788L29.2614 40.6625C29.1165 40.8115 28.9184 40.8968 28.7107 40.8997L12.5059 41.1284Z" fill="url(#paint1_linear_1943_1477)"/>
<path d="M186.247 28.171H181.575L193.533 16.213H179.99V12.876H198.901C199.142 12.876 199.346 12.9408 199.512 13.0706C199.698 13.2003 199.828 13.358 199.902 13.5434C199.994 13.7288 200.023 13.9327 199.985 14.1552C199.948 14.3776 199.846 14.5723 199.68 14.7391L186.247 28.171Z" fill="url(#paint2_linear_1943_1477)"/>
<path d="M144.433 14.2195H154.105C154.797 14.2195 155.447 14.3545 156.055 14.6247C156.662 14.8779 157.186 15.2323 157.624 15.6881C158.08 16.1438 158.435 16.6756 158.688 17.2833C158.7 17.309 158.711 17.3347 158.722 17.3606H154.662C154.487 17.309 154.302 17.2833 154.105 17.2833H144.433C144.236 17.2833 144.049 17.309 143.872 17.3606H139.793C139.803 17.3347 139.813 17.309 139.823 17.2833C140.094 16.6756 140.449 16.1438 140.887 15.6881C141.343 15.2323 141.875 14.8779 142.482 14.6247C143.09 14.3545 143.74 14.2195 144.433 14.2195Z" fill="white"/>
<path d="M130.916 17.3606V17.334H138.234V14.2954H120.256V17.334H127.574V17.3606H130.916Z" fill="white"/>
<path d="M127.574 21.2778H130.916V28.1714H127.574V21.2778Z" fill="white"/>
<path d="M118.695 17.3606V14.2954H115.656V17.3606H118.695Z" fill="white"/>
<path d="M115.656 21.2778H118.695V28.1714H115.656V21.2778Z" fill="white"/>
<path d="M114.482 17.3606C114.424 17.1528 114.348 16.9497 114.256 16.7516C113.935 16.0595 113.446 15.477 112.787 15.0044C112.129 14.5318 111.345 14.2954 110.433 14.2954H93.8223V17.3606H96.8607V17.334H110.433C110.535 17.334 110.631 17.3428 110.72 17.3606H114.482Z" fill="white"/>
<path fill-rule="evenodd" clip-rule="evenodd" d="M93.8223 21.2778H113.71C114.244 21.9412 114.545 22.6692 114.611 23.4617C114.695 24.2719 114.577 25.0232 114.256 25.7153C113.935 26.4074 113.446 26.9897 112.787 27.4624C112.129 27.9351 111.345 28.1714 110.433 28.1714H93.8223V21.2778ZM110.433 25.1329H96.8607V22.7528H110.433C110.821 22.7528 111.108 22.8794 111.294 23.1326C111.496 23.3689 111.597 23.6389 111.597 23.9428C111.597 24.2467 111.496 24.5251 111.294 24.7784C111.108 25.0147 110.821 25.1329 110.433 25.1329Z" fill="white"/>
<path d="M92.7726 17.3607C92.7687 17.3518 92.7648 17.343 92.7609 17.3341C92.5077 16.7264 92.1532 16.1946 91.6973 15.7389C91.2585 15.2831 90.7352 14.9286 90.1275 14.6753C89.5198 14.4053 88.8698 14.2703 88.1777 14.2703L72.5801 14.2955V28.1715H75.6186V17.3341H88.1777C88.2933 17.3341 88.405 17.343 88.5127 17.3607H92.7726Z" fill="white"/>
<path d="M78.7017 21.2778H92.7428C92.491 21.8671 92.1427 22.384 91.6981 22.8287C91.2592 23.2676 90.7359 23.6221 90.1282 23.8921C89.5205 24.1453 88.8706 24.2719 88.1785 24.2719H86.406L93.0148 28.1714H87.115L78.5059 23.0819C78.2864 22.9637 78.1429 22.8033 78.0754 22.6008C78.0079 22.3814 77.9995 22.1703 78.0502 21.9678C78.1007 21.7652 78.2105 21.5964 78.3793 21.4614C78.4736 21.3765 78.581 21.3153 78.7017 21.2778Z" fill="white"/>
<path d="M139.443 21.2778H142.482V21.7652H156.055V21.2778H159.093V28.1714H156.055V24.829H142.482V28.1714H139.443V21.2778Z" fill="white"/>
<path d="M160.586 21.2778V23.1832C160.586 23.8753 160.713 24.5251 160.966 25.1329C161.236 25.7406 161.591 26.2724 162.03 26.7281C162.485 27.167 163.017 27.5215 163.625 27.7916C164.233 28.0448 164.882 28.1714 165.575 28.1714H177.121V25.1329H165.575C165.035 25.1329 164.57 24.9472 164.182 24.5758C163.81 24.1876 163.625 23.7233 163.625 23.1832V21.2778H160.586Z" fill="white"/>
<path d="M163.625 17.3606V14.2954H160.586V17.3606H163.625Z" fill="white"/>
<path fill-rule="evenodd" clip-rule="evenodd" d="M54.7173 28.1714C53.755 28.1714 52.852 27.9941 52.0079 27.6396C51.1808 27.2682 50.4465 26.7702 49.805 26.1457C49.1804 25.5041 48.6824 24.7698 48.3111 23.9427C47.9566 23.0987 47.7793 22.1956 47.7793 21.2334C47.7793 20.2711 47.9566 19.3681 48.3111 18.524C48.6824 17.68 49.1804 16.9457 49.805 16.3211C50.4465 15.6965 51.1808 15.207 52.0079 14.8525C52.852 14.4811 53.755 14.2954 54.7173 14.2954H65.0735C66.0358 14.2954 66.9389 14.4811 67.7829 14.8525C68.6269 15.207 69.3612 15.6965 69.9858 16.3211C70.6273 16.9457 71.1253 17.68 71.4797 18.524C71.8511 19.3681 72.0369 20.2711 72.0369 21.2334C72.0369 22.1956 71.8511 23.0987 71.4797 23.9427C71.1253 24.7698 70.6273 25.5041 69.9858 26.1457C69.3612 26.7702 68.6269 27.2682 67.7829 27.6396C66.9389 27.9941 66.0358 28.1714 65.0735 28.1714H54.7173ZM65.0735 25.1328C65.6137 25.1328 66.1201 25.0316 66.5928 24.8289C67.0655 24.6264 67.479 24.3479 67.8335 23.9934C68.188 23.6389 68.4665 23.2253 68.6692 22.7527C68.8717 22.28 68.973 21.7736 68.973 21.2334C68.973 20.6932 68.8717 20.1868 68.6692 19.7141C68.4665 19.2415 68.188 18.8279 67.8335 18.4734C67.479 18.1189 67.0655 17.8404 66.5928 17.6378C66.1201 17.4352 65.6137 17.334 65.0735 17.334H54.7173C54.1771 17.334 53.6707 17.4352 53.198 17.6378C52.7254 17.8404 52.3118 18.1189 51.9573 18.4734C51.6027 18.8279 51.3243 19.2415 51.1217 19.7141C50.9191 20.1868 50.8179 20.6932 50.8179 21.2334C50.8179 21.7736 50.9191 22.28 51.1217 22.7527C51.3243 23.2253 51.6027 23.6389 51.9573 23.9934C52.3118 24.3479 52.7254 24.6264 53.198 24.8289C53.6707 25.0316 54.1771 25.1328 54.7173 25.1328H65.0735Z" fill="white"/>
<path d="M71.9733 20.3058L72.5712 20.2974V18.4195L71.4355 18.4126C71.4482 18.4417 71.4607 18.4711 71.4731 18.5004C71.7258 19.0748 71.8926 19.6767 71.9733 20.3058Z" fill="url(#paint3_linear_1943_1477)"/>
<path d="M52.1124 18.2964L67.7655 18.3907C67.7859 18.4102 67.8061 18.43 67.8261 18.45C68.1805 18.8044 68.4591 19.218 68.6617 19.6907C68.7528 19.9034 68.8235 20.1229 68.8736 20.3492L50.8555 20.601C50.9034 20.2847 50.9897 19.9814 51.1143 19.6907C51.3168 19.218 51.5954 18.8044 51.9499 18.45C52.0027 18.3971 52.0569 18.3459 52.1124 18.2964Z" fill="url(#paint4_linear_1943_1477)"/>
<path d="M75.6191 20.2619V18.4346L185.498 18.9828L75.6191 20.2619Z" fill="url(#paint5_linear_1943_1477)"/>
<defs>
<linearGradient id="paint0_linear_1943_1477" x1="-2.46179" y1="2.69335" x2="41.2543" y2="35.0488" gradientUnits="userSpaceOnUse">
<stop stop-color="#468CF4"/>
<stop offset="1" stop-color="#D605DA"/>
</linearGradient>
<linearGradient id="paint1_linear_1943_1477" x1="-2.4626" y1="2.69336" x2="41.2535" y2="35.0488" gradientUnits="userSpaceOnUse">
<stop stop-color="#468CF4"/>
<stop offset="1" stop-color="#D605DA"/>
</linearGradient>
<linearGradient id="paint2_linear_1943_1477" x1="178.784" y1="13.8776" x2="195.778" y2="30.448" gradientUnits="userSpaceOnUse">
<stop stop-color="#468CF4"/>
<stop offset="1" stop-color="#D605DA"/>
</linearGradient>
<linearGradient id="paint3_linear_1943_1477" x1="153.446" y1="4.64489" x2="151.757" y2="0.407217" gradientUnits="userSpaceOnUse">
<stop stop-color="#468CF4"/>
<stop offset="0.725" stop-color="#D605DA"/>
<stop offset="1" stop-color="#D605DA"/>
</linearGradient>
<linearGradient id="paint4_linear_1943_1477" x1="153.445" y1="4.64503" x2="151.756" y2="0.407359" gradientUnits="userSpaceOnUse">
<stop stop-color="#468CF4"/>
<stop offset="0.725" stop-color="#D605DA"/>
<stop offset="1" stop-color="#D605DA"/>
</linearGradient>
<linearGradient id="paint5_linear_1943_1477" x1="153.446" y1="4.64481" x2="151.757" y2="0.407134" gradientUnits="userSpaceOnUse">
<stop stop-color="#468CF4"/>
<stop offset="0.725" stop-color="#D605DA"/>
<stop offset="1" stop-color="#D605DA"/>
</linearGradient>
</defs>
</svg>

<svg xmlns="http://www.w3.org/2000/svg" width="200" height="42" fill="none"><path fill="url(#a)" d="M28.336 0c.21-.003.41.078.56.224l2.063 2.026c.493.484.5 1.277.017 1.77l-6.163 6.3c-.118.12-.321.105-.49.107l-7.988.113a.4.4 0 0 0-.271.117l-5.6 5.76a.4.4 0 0 0-.11.272l.074 8.032-6.621 6.47a1.253 1.253 0 0 1-1.755-.003L.383 29.55a.78.78 0 0 1-.234-.552L0 12.703a.78.78 0 0 1 .222-.553L11.58.466a.78.78 0 0 1 .55-.237z"/><path fill="url(#b)" d="M12.506 41.128a.78.78 0 0 1-.56-.224l-2.043-2.006a1.254 1.254 0 0 1-.02-1.769l6.147-6.32c.118-.12.32-.105.49-.108l7.987-.112a.4.4 0 0 0 .272-.117l5.6-5.76c.07-.073.11-.17.108-.273l-.068-7.498a1.25 1.25 0 0 1 .377-.907l6.235-6.1a1.254 1.254 0 0 1 1.755.003l1.673 1.642a.78.78 0 0 1 .234.552l.149 16.295a.78.78 0 0 1-.222.553L29.261 40.663a.78.78 0 0 1-.55.237z"/><path fill="url(#c)" d="M186.247 28.171h-4.672l11.958-11.958H179.99v-3.337h18.911q.362 0 .611.195.279.195.39.472.139.279.083.612a1.06 1.06 0 0 1-.305.584z"/><path fill="#fff" d="M144.433 14.22h9.672q1.038 0 1.95.405a4.6 4.6 0 0 1 1.569 1.063q.684.684 1.064 1.595l.034.078h-4.06a2 2 0 0 0-.557-.078h-9.672q-.295 0-.561.078h-4.079l.03-.078a5.5 5.5 0 0 1 1.064-1.595q.684-.684 1.595-1.063a4.75 4.75 0 0 1 1.951-.405m-13.517 3.14v-.026h7.318v-3.039h-17.978v3.039h7.318v.027zm-3.342 3.918h3.342v6.893h-3.342zm-8.879-3.918v-3.065h-3.039v3.066zm-3.039 3.918h3.039v6.893h-3.039zm-1.174-3.918a4 4 0 0 0-.226-.608 4.4 4.4 0 0 0-1.469-1.748q-.987-.709-2.354-.709h-16.61v3.066h3.038v-.027h13.572q.153 0 .287.027z"/><path fill="#fff" fill-rule="evenodd" d="M93.822 21.278h19.888q.802.994.901 2.184.126 1.215-.355 2.253a4.4 4.4 0 0 1-1.469 1.747q-.987.71-2.354.71h-16.61zm16.611 3.855H96.861v-2.38h13.572q.582 0 .861.38.303.354.303.81t-.303.835q-.279.355-.861.355" clip-rule="evenodd"/><path fill="#fff" d="m92.773 17.36-.012-.026a4.9 4.9 0 0 0-1.064-1.595 4.6 4.6 0 0 0-1.57-1.064 4.75 4.75 0 0 0-1.95-.405l-15.597.026v13.876h3.039V17.334h12.559q.173 0 .335.027z"/><path fill="#fff" d="M78.702 21.278h14.04q-.377.884-1.044 1.55a5.2 5.2 0 0 1-1.57 1.064 5 5 0 0 1-1.95.38h-1.772l6.609 3.9h-5.9l-8.61-5.09q-.328-.177-.43-.481a1.16 1.16 0 0 1-.025-.633.92.92 0 0 1 .33-.507.9.9 0 0 1 .322-.183m60.741 0h3.039v.487h13.573v-.487h3.038v6.893h-3.038V24.83h-13.573v3.342h-3.039zm21.143 0v1.905q0 1.038.38 1.95a5.5 5.5 0 0 0 1.064 1.595q.683.658 1.595 1.064.911.38 1.95.38h11.546v-3.04h-11.546q-.81 0-1.393-.556a1.94 1.94 0 0 1-.557-1.393v-1.905zm3.039-3.918v-3.065h-3.039v3.066z"/><path fill="#fff" fill-rule="evenodd" d="M54.717 28.171a6.9 6.9 0 0 1-2.71-.531 7.6 7.6 0 0 1-2.202-1.494 7.6 7.6 0 0 1-1.494-2.203 6.9 6.9 0 0 1-.532-2.71q0-1.443.532-2.709a7.2 7.2 0 0 1 1.494-2.203 7.2 7.2 0 0 1 2.203-1.469 6.65 6.65 0 0 1 2.71-.557h10.355q1.444 0 2.71.557a6.8 6.8 0 0 1 2.203 1.47 6.6 6.6 0 0 1 1.494 2.202q.557 1.266.557 2.71t-.557 2.709a7 7 0 0 1-1.494 2.203 7.2 7.2 0 0 1-2.203 1.494 6.9 6.9 0 0 1-2.71.531zm10.356-3.038q.81 0 1.52-.304a3.92 3.92 0 0 0 2.076-2.076q.304-.71.304-1.52t-.304-1.519a3.92 3.92 0 0 0-2.076-2.076 3.8 3.8 0 0 0-1.52-.304H54.717q-.81 0-1.519.304a3.92 3.92 0 0 0-2.076 2.076q-.304.71-.304 1.52t.304 1.519a3.92 3.92 0 0 0 2.076 2.076q.71.304 1.52.304z" clip-rule="evenodd"/><path fill="url(#d)" d="m71.973 20.306.598-.009V18.42l-1.135-.006.037.087a6.5 6.5 0 0 1 .5 1.806"/><path fill="url(#e)" d="m52.112 18.296 15.654.095.06.059a3.9 3.9 0 0 1 1.048 1.9l-18.018.251q.071-.474.258-.91a3.9 3.9 0 0 1 .998-1.395"/><path fill="url(#f)" d="M75.62 20.262v-1.827l109.878.548z"/><defs><linearGradient id="a" x1="-2.462" x2="41.254" y1="2.693" y2="35.049" gradientUnits="userSpaceOnUse"><stop stop-color="#468CF4"/><stop offset="1" stop-color="#D605DA"/></linearGradient><linearGradient id="b" x1="-2.463" x2="41.254" y1="2.693" y2="35.049" gradientUnits="userSpaceOnUse"><stop stop-color="#468CF4"/><stop offset="1" stop-color="#D605DA"/></linearGradient><linearGradient id="c" x1="178.784" x2="195.778" y1="13.878" y2="30.448" gradientUnits="userSpaceOnUse"><stop stop-color="#468CF4"/><stop offset="1" stop-color="#D605DA"/></linearGradient><linearGradient id="d" x1="153.446" x2="151.757" y1="4.645" y2=".407" gradientUnits="userSpaceOnUse"><stop stop-color="#468CF4"/><stop offset=".725" stop-color="#D605DA"/><stop offset="1" stop-color="#D605DA"/></linearGradient><linearGradient id="e" x1="153.445" x2="151.756" y1="4.645" y2=".407" gradientUnits="userSpaceOnUse"><stop stop-color="#468CF4"/><stop offset=".725" stop-color="#D605DA"/><stop offset="1" stop-color="#D605DA"/></linearGradient><linearGradient id="f" x1="153.446" x2="151.757" y1="4.645" y2=".407" gradientUnits="userSpaceOnUse"><stop stop-color="#468CF4"/><stop offset=".725" stop-color="#D605DA"/><stop offset="1" stop-color="#D605DA"/></linearGradient></defs></svg>
